X: 2029
T: Corant.
%R: courante
B: Henry Playford "Apollo's Banquet", London 1687 (5th Edition)
F: https://archive.org/details/apollosbanquetco01rugg
Z: 2017 John Chambers <jc:trillian.mit.edu>
M: 3/2
L: 1/8
K: F
% - - - - - - - - - -
za |\
a3gf2 g2e3d | c3BA2 B2B3c |\
A3GF2 c2d3e | f3ed2 c2c3=B |\
c6 c4 :|
|: ze |\
e3f^c2 d2d3^c | d6 c2c3B |\
A3fe2 f2g3a | b3ag2 f2e3d |\
c3de2 f2f3e | f6 f4 |]
% - - - - - - - - - -

%%sep 1 1 500
%%sep 1 1 500

